neru-light-classic/32x32/apps/qcad.svg

<?xml version="1.0" encoding="UTF-8" standalone="no"?>
<svg
   xmlns:dc="http://purl.org/dc/elements/1.1/"
   xmlns:cc="http://creativecommons.org/ns#"
   xmlns:rdf="http://www.w3.org/1999/02/22-rdf-syntax-ns#"
   xmlns:svg="http://www.w3.org/2000/svg"
   xmlns="http://www.w3.org/2000/svg"
   xmlns:sodipodi="http://sodipodi.sourceforge.net/DTD/sodipodi-0.dtd"
   xmlns:inkscape="http://www.inkscape.org/namespaces/inkscape"
   height="32"
   width="32"
   version="1"
   id="svg14"
   sodipodi:docname="qcad.svg"
   inkscape:version="0.92.1 r">
  <metadata
     id="metadata20">
    <rdf:RDF>
      <cc:Work
         rdf:about="">
        <dc:format>image/svg+xml</dc:format>
        <dc:type
           rdf:resource="http://purl.org/dc/dcmitype/StillImage" />
        <dc:title>
  Compiz
 </dc:title>
      </cc:Work>
    </rdf:RDF>
  </metadata>
  <defs
     id="defs18" />
  <sodipodi:namedview
     pagecolor="#ffffff"
     bordercolor="#666666"
     borderopacity="1"
     objecttolerance="10"
     gridtolerance="10"
     guidetolerance="10"
     inkscape:pageopacity="0"
     inkscape:pageshadow="2"
     inkscape:window-width="1680"
     inkscape:window-height="963"
     id="namedview16"
     showgrid="false"
     inkscape:zoom="8"
     inkscape:cx="-8.504653"
     inkscape:cy="19.70031"
     inkscape:window-x="0"
     inkscape:window-y="0"
     inkscape:window-maximized="1"
     inkscape:current-layer="svg14" />
  <title
     id="title2">
  Compiz
 </title>
  <path
     style="opacity:1;fill:#2d427b;fill-opacity:1;fill-rule:evenodd;stroke:none;stroke-width:1.03534329;stroke-linecap:round;stroke-linejoin:bevel;stroke-miterlimit:4;stroke-dasharray:none;stroke-dashoffset:0;stroke-opacity:1"
     d="M 7.4726562 1.8984375 C 4.3840054 1.8984375 1.8984375 4.3840054 1.8984375 7.4726562 L 1.8984375 24.527344 C 1.8984375 27.615995 4.3840054 30.101562 7.4726562 30.101562 L 24.207031 30.101562 L 14.699219 20.597656 L 17.236328 20.527344 L 17.351562 17.783203 L 19.980469 17.839844 L 20.072266 14.996094 L 30.007812 24.988281 C 30.021518 24.828153 30.101562 24.69114 30.101562 24.527344 L 30.101562 7.4726562 C 30.101563 4.3840054 27.615995 1.8984375 24.527344 1.8984375 L 7.4726562 1.8984375 z "
     id="rect4497-3" />
  <circle
     style="opacity:1;fill:#d7e2ec;fill-opacity:1;fill-rule:evenodd;stroke:none;stroke-width:4.30000019;stroke-linecap:round;stroke-linejoin:bevel;stroke-miterlimit:4;stroke-dasharray:none;stroke-dashoffset:0;stroke-opacity:1"
     id="path4575"
     cx="16"
     cy="16"
     r="8.7415638" />
  <path
     style="opacity:1;fill:#fda002;fill-opacity:1;fill-rule:evenodd;stroke:none;stroke-width:1.03534329;stroke-linecap:round;stroke-linejoin:bevel;stroke-miterlimit:4;stroke-dasharray:none;stroke-dashoffset:0;stroke-opacity:1"
     d="M 30.007812 24.988281 L 20.072266 14.996094 L 19.980469 17.839844 L 17.351562 17.783203 L 17.236328 20.527344 L 14.699219 20.597656 L 24.207031 30.101562 L 24.527344 30.101562 C 27.452198 30.101563 29.763087 27.847641 30.007812 24.988281 z "
     id="path4529" />
  <ellipse
     style="opacity:0;fill:#9f1796;fill-opacity:1;fill-rule:evenodd;stroke:none;stroke-width:0.75590551;stroke-linecap:round;stroke-linejoin:bevel;stroke-miterlimit:4;stroke-dasharray:none;stroke-dashoffset:0;stroke-opacity:1"
     id="path4552"
     cx="79.593224"
     cy="-16.813559"
     rx="51.661018"
     ry="42.033897" />
  <ellipse
     style="opacity:0;fill:#9f1796;fill-opacity:0.95454544;fill-rule:evenodd;stroke:none;stroke-width:0.23350567;stroke-linecap:round;stroke-linejoin:bevel;stroke-miterlimit:4;stroke-dasharray:none;stroke-dashoffset:0;stroke-opacity:1"
     id="path4548"
     cx="14.337311"
     cy="16.837656"
     rx="10.722792"
     ry="12.105026" />
  <path
     style="opacity:1;fill:#ffffff;fill-opacity:1;fill-rule:evenodd;stroke:none;stroke-width:0.30890855;stroke-linecap:round;stroke-linejoin:bevel;stroke-miterlimit:4;stroke-dasharray:1.23563415, 2.4712683;stroke-dashoffset:0;stroke-opacity:0.97647059"
     d="M 19.039062 24.935547 L 14.701172 20.597656 L 19.037109 24.935547 A 9.5007582 9.5007582 0 0 0 19.039062 24.935547 z "
     id="path4557" />
  <path
     style="opacity:1;fill:#fda002;fill-opacity:1;fill-rule:evenodd;stroke:none;stroke-width:0.30890855;stroke-linecap:round;stroke-linejoin:bevel;stroke-miterlimit:4;stroke-dasharray:1.23563415, 2.47126830000000020;stroke-dashoffset:0;stroke-opacity:0.97647059"
     d="M 20.074219 14.998047 L 19.980469 17.839844 L 17.351562 17.783203 L 17.236328 20.525391 L 14.701172 20.597656 L 19.039062 24.935547 A 9.5007582 9.5007582 0 0 0 24.802734 19.755859 L 20.074219 14.998047 z "
     id="path4555" />
  <path
     style="opacity:1;fill:#ffffff;fill-opacity:1;fill-rule:evenodd;stroke:none;stroke-width:0.30890855;stroke-linecap:round;stroke-linejoin:bevel;stroke-miterlimit:4;stroke-dasharray:1.23563415, 2.47126830000000020;stroke-dashoffset:0;stroke-opacity:0.97647059"
     d="M 12.070312 12.539062 L 14.699219 20.597656 L 14.701172 20.597656 L 17.236328 20.525391 L 17.351562 17.783203 L 19.980469 17.839844 L 20.074219 14.998047 L 20.072266 14.996094 L 12.070312 12.539062 z "
     id="path4532" />
  <path
     style="fill:#000000;fill-opacity:1;stroke:none;stroke-width:0.30890858px;stroke-linecap:butt;stroke-linejoin:miter;stroke-opacity:1"
     d="m 12.070852,12.538876 0.995317,3.015675 2.002032,-2.06929 z"
     id="path4574"
     inkscape:connector-curvature="0"
     sodipodi:nodetypes="cccc" />
</svg>

<svg xmlns="http://www.w3.org/2000/svg" height="32" width="32" version="1"><path d="M7.473 1.898a5.561 5.561 0 0 0-5.575 5.575v17.054a5.561 5.561 0 0 0 5.575 5.575h16.734l-9.508-9.504 2.537-.07.116-2.745 2.628.057.092-2.844 9.936 9.992c.014-.16.094-.297.094-.46V7.472a5.561 5.561 0 0 0-5.575-5.575H7.473z" fill="#2d427b" fill-rule="evenodd"/><circle cx="16" cy="16" r="8.742" fill="#d7e2ec" fill-rule="evenodd"/><path d="M30.008 24.988l-9.936-9.992-.092 2.844-2.628-.057-.116 2.744-2.537.07 9.508 9.505h.32c2.925 0 5.236-2.254 5.48-5.114z" fill="#fda002" fill-rule="evenodd"/><path d="M19.04 24.936L14.7 20.598l4.336 4.338a9.5 9.5 0 0 0 .002 0z" fill="#fff" fill-rule="evenodd"/><path d="M20.074 14.998l-.094 2.842-2.628-.057-.116 2.742-2.535.073 4.338 4.338a9.5 9.5 0 0 0 5.764-5.18l-4.729-4.758z" fill="#fda002" fill-rule="evenodd"/><path d="M12.07 12.54l2.63 8.058h.001l2.535-.073.116-2.742 2.628.057.094-2.842-.002-.002-8.002-2.457z" fill="#fff" fill-rule="evenodd"/><path d="M12.07 12.539l.996 3.016 2.002-2.07z"/></svg>
